X: 1524
T: Andy McGann's
R: reel
M: 4/4
K: Cmajor
|:Ccdc A2 AB|cA ~A2 cAGE|Ccdc AcGc|ecdc cAGE|
CA ~A2 cA ~A2|CA ~A2 AGEA|~G2 GE GAcd|ecde cAGc||
cg ~g2 eccd|ecgc AcGc|eg ~g2 a2 ge|~d2 ed cAAc|
eg ~g2 eccd|ecgc AcGc|eg ~g2 a2 ge|~d2 ed cAGE:|
"end with" Ccdc A4||

